X: 982
T: Havayı da Deli Gönül Havayı
C: Âsaf Güven
O: Turkey
F: http://compmusic.upf.edu/node/140
N: muhayyer--bozlak--serbest--havayi_da--asaf_guven
N: makam= muhayyer
N: form= bozlak
N: usul= serbest = 0/1
M: 0/1
L: 1/16
K: C _2/4B ^3/4f  
Q: 1/4=60
%%MIDI tuningsystem comma53
(3g2^f2g2 a8 c' c' c' c'  | c' c' c' c' b c' c'/ b/ a/ g/ g8  | \
w:  Ah  *  *  *  ha va yı  da   |  de li  gö nül  ha va yı    | 
g8 (3b2c'2c'2 b c' c'2  | 
w:  *  A lı cı  ku şu  da   | 
b b a a a a2 e e8  | e8 (3g2^f2g2 a4  | \
w:  yük sek  ya par  yu va *  yı    |  *  Ah   | 
a4 b c' c'/ c'/ c' c'/ c'3/2 c'/ c'3/2 b/ c'3/2 b3/2 a/  | 
w:  *  Türk men  kı zı  da  ka ter le miş  ma ya yı    | 
g a3 g/ ^f/ g7/2 f/ g a a/ a/ a a a/ a/ a  | \
w:  ma ya yı   *  *  *  Çe kip  gi der  de  yay la sı na   | 
a g4 g g8-g2  | =f/ e/ f3 e/ d/ e3/2 d/ c/ d3 c11/2  | 
w:  *  bir  ge lin   |   | 
c8 d/ c/ B/ A/ G6  | G12 A c B2  | B6 A4 c/ B/ A4-A  | A16  | |


